pencil-remove.svg

<svg fill="currentColor" viewBox="0 0 24 24"><path d="M20.7 7c.4-.4.4-1 0-1.4l-2.3-2.3c-.4-.4-1-.4-1.4 0l-1.8 1.8L19 8.9M3 17.2V21h3.8l11-11.1-3.7-3.8zm.9-14.8L6 4.5l2.1-2.1 1.4 1.4-2.1 2.1L9.5 8 8.1 9.5 6 7.4 3.9 9.5 2.5 8.1 4.6 6 2.5 3.8z"/></svg>

<svg  viewBox="0 0 24 24" fill="currentColor"><path  d="M20.7,7C21.1,6.6 21.1,6 20.7,5.6L18.4,3.3C18,2.9 17.4,2.9 17,3.3L15.2,5.1L19,8.9M3,17.2V21H6.8L17.8,9.9L14.1,6.1L3,17.2M3.9,2.4L6,4.5L8.1,2.4L9.5,3.8L7.4,5.9L9.5,8L8.1,9.5L6,7.4L3.9,9.5L2.5,8.1L4.6,6L2.5,3.8L3.9,2.4Z"/></svg>
